src/flags/country-flag/1F1F8-1F1F0.svg

<svg id="emoji" viewBox="0 0 72 72" xmlns="http://www.w3.org/2000/svg">
  <g id="grid">
    <path fill="#b3b3b3" d="M68,4V68H4V4H68m4-4H0V72H72V0Z"/>
    <path fill="none" stroke="#00a5ff" stroke-miterlimit="10" stroke-width="0.1" d="M12.923,10.9583H59.0769A1.9231,1.9231,0,0,1,61,12.8814V59.0352a1.9231,1.9231,0,0,1-1.9231,1.9231H12.9231A1.9231,1.9231,0,0,1,11,59.0352V12.8813A1.923,1.923,0,0,1,12.923,10.9583Z"/>
    <rect x="16" y="4" rx="2.2537" ry="2.2537" width="40" height="64" fill="none" stroke="#00a5ff" stroke-miterlimit="10" stroke-width="0.1"/>
    <rect x="16" y="4" rx="2.2537" ry="2.2537" width="40" height="64" transform="translate(72) rotate(90)" fill="none" stroke="#00a5ff" stroke-miterlimit="10" stroke-width="0.1"/>
    <circle cx="36" cy="36" r="29" fill="none" stroke="#00a5ff" stroke-miterlimit="10" stroke-width="0.1"/>
  </g>
  <g id="color">
    <rect x="5" y="17" width="62" height="38" fill="#d22f27"/>
    <rect x="5" y="17" width="62" height="13" fill="#d0cfce"/>
    <rect x="5" y="30" width="62" height="12" fill="#1e50a0"/>
    <path fill="#d22f27" stroke="#fff" stroke-linecap="round" stroke-linejoin="round" d="M23.8334,45s6.75-2.25,6.75-9V27h-13.5v9C17.0834,42.75,23.8334,45,23.8334,45Z"/>
    <line x1="23.8334" x2="23.8334" y1="29.5" y2="41.5" fill="none" stroke="#fff" stroke-linecap="round" stroke-linejoin="round" stroke-width="2"/>
    <line x1="21.8334" x2="25.8334" y1="31.5" y2="31.5" fill="none" stroke="#fff" stroke-linecap="round" stroke-linejoin="round" stroke-width="2"/>
    <line x1="20.3334" x2="27.3334" y1="34.5" y2="34.5" fill="none" stroke="#fff" stroke-linecap="round" stroke-linejoin="round" stroke-width="2"/>
    <circle cx="23.8334" cy="41.5" r="3.1667" fill="#1e50a0"/>
    <path fill="#1e50a0" d="M19.25,39.3333a2.1457,2.1457,0,0,0-1.3265.465,9.5792,9.5792,0,0,0,2.7022,3.3628A2.158,2.158,0,0,0,19.25,39.3333Z"/>
    <path fill="#1e50a0" d="M28.4167,39.3333a2.158,2.158,0,0,0-1.3757,3.8278,9.5792,9.5792,0,0,0,2.7022-3.3628A2.1455,2.1455,0,0,0,28.4167,39.3333Z"/>
    <path fill="none" stroke="#fff" stroke-linecap="round" stroke-linejoin="round" d="M23.8334,45s6.75-2.25,6.75-9V27h-13.5v9C17.0834,42.75,23.8334,45,23.8334,45Z"/>
  </g>
  <g id="line">
    <rect x="5" y="17" width="62" height="38" fill="none" stroke="#000" stroke-linecap="round" stroke-linejoin="round" stroke-width="2"/>
  </g>
</svg>

<svg viewBox="0 0 72 72" xmlns="http://www.w3.org/2000/svg"><path fill="#b3b3b3" d="M68 4v64H4V4h64m4-4H0v72h72V0z"/><path fill="none" stroke="#00a5ff" stroke-miterlimit="10" stroke-width=".1" d="M12.923 10.958h46.154A1.923 1.923 0 0161 12.881v46.154a1.923 1.923 0 01-1.923 1.923H12.923A1.923 1.923 0 0111 59.035V12.881a1.923 1.923 0 011.923-1.923z"/><rect x="16" y="4" rx="2.254" ry="2.254" width="40" height="64" fill="none" stroke="#00a5ff" stroke-miterlimit="10" stroke-width=".1"/><rect x="16" y="4" rx="2.254" ry="2.254" width="40" height="64" transform="rotate(90 36 36)" fill="none" stroke="#00a5ff" stroke-miterlimit="10" stroke-width=".1"/><circle cx="36" cy="36" r="29" fill="none" stroke="#00a5ff" stroke-miterlimit="10" stroke-width=".1"/><path d="M5 17h62v38H5z" stroke-linecap="round" stroke-miterlimit="10" stroke-width="6" stroke="#fff" fill="none" stroke-linejoin="round"/><path fill="#d22f27" d="M5 17h62v38H5z"/><path fill="#d0cfce" d="M5 17h62v13H5z"/><path fill="#1e50a0" d="M5 30h62v12H5z"/><path fill="#d22f27" stroke="#fff" stroke-linecap="round" stroke-linejoin="round" d="M23.833 45s6.75-2.25 6.75-9v-9h-13.5v9c0 6.75 6.75 9 6.75 9z"/><path fill="none" stroke="#fff" stroke-linecap="round" stroke-linejoin="round" stroke-width="2" d="M23.833 29.5v12m-2-10h4m-5.5 3h7"/><circle cx="23.833" cy="41.5" r="3.167" fill="#1e50a0"/><path fill="#1e50a0" d="M19.25 39.333a2.146 2.146 0 00-1.327.465 9.58 9.58 0 002.703 3.363 2.158 2.158 0 00-1.376-3.828zm9.167 0a2.158 2.158 0 00-1.376 3.828 9.58 9.58 0 002.702-3.363 2.146 2.146 0 00-1.326-.465z"/><path fill="none" stroke="#fff" stroke-linecap="round" stroke-linejoin="round" d="M23.833 45s6.75-2.25 6.75-9v-9h-13.5v9c0 6.75 6.75 9 6.75 9z"/><g><path fill="none" stroke="#000" stroke-linecap="round" stroke-linejoin="round" stroke-width="2" d="M5 17h62v38H5z"/></g></svg>
